packages/kaspersky-hexa-ui-icons/src/iconsSVGs/16/MacOs.svg

<svg width="16" height="16" viewBox="0 0 16 16" fill="none" xmlns="http://www.w3.org/2000/svg">
<path d="M10.6666 6.00006C11.0348 6.00006 11.3333 5.70158 11.3333 5.33339C11.3333 4.9652 11.0348 4.66673 10.6666 4.66673C10.2985 4.66673 9.99998 4.9652 9.99998 5.33339C9.99998 5.70158 10.2985 6.00006 10.6666 6.00006Z" fill="black"/>
<path d="M5.99994 5.33339C5.99994 5.70158 5.70146 6.00006 5.33327 6.00006C4.96508 6.00006 4.6666 5.70158 4.6666 5.33339C4.6666 4.9652 4.96508 4.66673 5.33327 4.66673C5.70146 4.66673 5.99994 4.9652 5.99994 5.33339Z" fill="black"/>
<path fill-rule="evenodd" clip-rule="evenodd" d="M11.3333 2.01673H8.34527C8.33676 2.01656 8.32827 2.01656 8.3198 2.01673H4.6666C3.20305 2.01673 2.0166 3.20318 2.0166 4.66673V11.3334C2.0166 12.7969 3.20305 13.9834 4.6666 13.9834H11.3333C12.7968 13.9834 13.9833 12.7969 13.9833 11.3334V4.66673C13.9833 3.20317 12.7968 2.01673 11.3333 2.01673ZM11.3333 12.6834H8.60051C8.58453 12.2144 8.61574 11.738 8.67657 11.2753C9.21993 11.21 9.70563 11.0774 10.0827 10.9484C10.349 10.8572 10.5672 10.7658 10.7207 10.6961C10.7976 10.6612 10.8586 10.6316 10.9019 10.6099C10.9235 10.5991 10.9407 10.5903 10.9532 10.5837L10.9684 10.5757L10.9733 10.5731L10.9751 10.5721L10.9762 10.5716C10.9763 10.5715 10.9764 10.5714 10.6666 10L10.9762 10.5716L11.5478 10.2615L10.9281 9.11878L10.358 9.42795L10.3569 9.42852L10.3516 9.43131C10.3454 9.43454 10.3348 9.44003 10.32 9.44743C10.2904 9.46226 10.2442 9.48472 10.1834 9.51232C10.0615 9.56764 9.88247 9.64287 9.66179 9.71839C9.44963 9.791 9.20433 9.86203 8.93831 9.91656C8.95929 9.83255 8.98075 9.74998 9.00254 9.66904C9.14217 9.15043 9.29185 8.71143 9.40619 8.40322C9.46327 8.24934 9.51132 8.12866 9.54457 8.04765C9.56119 8.00716 9.57409 7.97663 9.58256 7.95686L9.59182 7.93539L9.59378 7.93092L10.0001 7.01673H8.1261L8.8661 3.31673H11.3333C12.0789 3.31673 12.6833 3.92114 12.6833 4.66673V11.3334C12.6833 12.079 12.0789 12.6834 11.3333 12.6834ZM7.5842 9.99607C7.63573 9.76262 7.691 9.53997 7.74724 9.33108C7.8506 8.94718 7.95894 8.60352 8.05707 8.31673H6.54036L7.54036 3.31673H4.6666C3.92102 3.31673 3.3166 3.92114 3.3166 4.66673V11.3334C3.3166 12.079 3.92102 12.6834 4.6666 12.6834H7.29993C7.28632 12.2086 7.31326 11.7357 7.36607 11.2803C6.80539 11.217 6.30404 11.0808 5.91706 10.9484C5.65075 10.8572 5.43263 10.7658 5.27911 10.6961C5.20222 10.6612 5.14114 10.6316 5.09792 10.6099C5.0763 10.5991 5.05911 10.5903 5.0466 10.5837L5.03138 10.5757L5.02645 10.5731L5.02467 10.5721L5.02364 10.5716C5.02349 10.5715 5.02335 10.5714 5.33323 10L5.02364 10.5716L4.45197 10.2615L5.07173 9.11878L5.64208 9.4281L5.64816 9.43131C5.65437 9.43454 5.66499 9.44003 5.67979 9.44743C5.70941 9.46226 5.7556 9.48472 5.8164 9.51232C5.93829 9.56764 6.11732 9.64287 6.338 9.71839C6.68343 9.83661 7.11671 9.95065 7.5842 9.99607Z" fill="black"/>
</svg>

<svg xmlns="http://www.w3.org/2000/svg" width="16" height="16" fill="none" viewBox="0 0 16 16"><path fill="#000" d="M10.667 6a.667.667 0 1 0 0-1.333.667.667 0 0 0 0 1.333M6 5.333a.667.667 0 1 1-1.333 0 .667.667 0 0 1 1.333 0"/><path fill="#000" fill-rule="evenodd" d="M11.3333 2.0167H4.6666c-1.4635 0-2.65 1.1865-2.65 2.65v6.6667c0 1.4635 1.1865 2.65 2.65 2.65h6.6667c1.4635 0 2.65-1.1865 2.65-2.65V4.6667c0-1.4635-1.1865-2.65-2.65-2.65m0 10.6667H8.6005c-.016-.469.0152-.9454.076-1.4081.5434-.0653 1.0291-.1979 1.4062-.3269a7.2 7.2 0 0 0 .638-.2523 5 5 0 0 0 .2325-.1124l.0152-.008.0049-.0026.0018-.001.0011-.0005c.0001-.0001.0002-.0002-.3096-.5716l.3096.5716.5716-.3101-.6197-1.1427-.5701.3091-.0011.0006-.0053.0028-.0316.0161a4 4 0 0 1-.1366.065 5.9 5.9 0 0 1-.5216.206 5.9 5.9 0 0 1-.7235.1982q.0316-.126.0642-.2476a14.6 14.6 0 0 1 .4037-1.2658 11 11 0 0 1 .1384-.3555 7 7 0 0 1 .038-.0908l.0092-.0215.002-.0045L10 7.0167H8.126l.74-3.7h2.4672c.7456 0 1.35.6044 1.35 1.35v6.6667c0 .7456-.6044 1.35-1.35 1.35m-3.749-2.6873c.0515-.2335.1068-.4561.163-.665.1034-.384.2117-.7276.3099-1.0144H6.5404l1-5H4.6666c-.7456 0-1.35.6044-1.35 1.35v6.6667c0 .7456.6044 1.35 1.35 1.35h2.6333c-.0136-.4748.0134-.9477.0662-1.4031-.5607-.0633-1.062-.1995-1.449-.3319a7.2 7.2 0 0 1-.638-.2523 5 5 0 0 1-.2325-.1124l-.0152-.008-.005-.0026-.0017-.001-.001-.0005c-.0002-.0001-.0004-.0002.3095-.5716l-.3096.5716-.5716-.3101.6197-1.1427.5704.3093.006.0032.0317.0161c.0296.0149.0758.0373.1366.065.1219.0552.301.1305.5216.206.3454.1182.7787.2322 1.2462.2777" clip-rule="evenodd"/></svg>
